X:101
T: O KOENIGIN LIEB MUTTER MEIN
N: B0130
O: Europa, Mitteleuropa, Deutschland
R: Ballade, Romanze
M: 6/8
L: 1/16
K: D
DE | =F4E2D4AB | =c4B2A4
A2 | G4=c2B4A2 | B2A2^G2A4
A2 | A2G2AG=F2G2A2 | G2=F2E2F4
FD | =C4=F2E2F2D2 | C2D2E2D4

@@@ Tune index: 1904
